X:340
T:Teresa Halpin's
M:C|
L:1/8
Q:120
R:Reel (Key of G)
K:G
"G"~G2GF GABd | "C"~e2de "G"gedB | "C"~e2de "G"gedB |"D"~A2AG AcBA |
"G"~G2GF GABd | "C"~e2de "G"gedB | egdg Bg"D"AB |1 "G"G2GF "D"GDEF :|2 "G"G2GF GABd |:
"G"g2gg "D"a2ga |"G"bagf edBd | "C"~e2de "G"gedB | "D"~A2AG AcBA |
"G"g2 gg "D"a2 ga | "G"bagf edBd | egdg Bg"D"AB |1 "G"G2GF GABd :|2 "G"G2GF "D"GDFE |]
